icons/svg/functional-icons/ladder.svg

<svg width="48" height="48" fill="none" version="1.1" viewBox="0 0 48 48" xmlns="http://www.w3.org/2000/svg">
 <namedview bordercolor="#666666" borderopacity="1" gridtolerance="10" guidetolerance="10" objecttolerance="10" pagecolor="#ffffff" showgrid="true">
  <grid spacingx="2" spacingy="2" type="xygrid"/>
 </namedview>
 <path d="m14 2a2.0002 2.0002 0 0 0-2 2v38a2.0002 2.0002 0 0 0 2 2h2a2.0002 2.0002 0 0 0 2-2v-4h14v4a2.0002 2.0002 0 0 0 2 2h2a2.0002 2.0002 0 0 0 2-2v-38a2.0002 2.0002 0 0 0-2-2h-2a2.0002 2.0002 0 0 0-2 2v4h-14v-4a2.0002 2.0002 0 0 0-2-2zm4 12h14v2h-14zm0 8h14v2h-14zm0 8h14v2h-14z" color="#000000" color-rendering="auto" dominant-baseline="auto" fill="#ffffff" fill-rule="evenodd" image-rendering="auto" shape-rendering="auto" solid-color="#000000" style="font-feature-settings:normal;font-variant-alternates:normal;font-variant-caps:normal;font-variant-ligatures:normal;font-variant-numeric:normal;font-variant-position:normal;isolation:auto;mix-blend-mode:normal;shape-padding:0;text-decoration-color:#000000;text-decoration-line:none;text-decoration-style:solid;text-indent:0;text-orientation:mixed;text-transform:none;white-space:normal"/>
 <g fill="none" stroke="#000000" stroke-width="2">
  <path d="m15 42v-38"/>
  <path d="m35 42v-38"/>
  <g>
   <path d="m16 11h18"/>
   <path d="m16 19h18"/>
   <path d="m16 27h18"/>
   <path d="m16 35h18"/>
  </g>
 </g>
</svg>

<svg xmlns:ns0="http://sodipodi.sourceforge.net/DTD/sodipodi-0.dtd" xmlns:ns1="http://www.inkscape.org/namespaces/inkscape" xmlns:rdf="http://www.w3.org/1999/02/22-rdf-syntax-ns#" width="48" height="48" viewBox="0 0 48 48" version="1.1" id="svg10" ns0:docname="ladder.svg" style="fill:none" ns1:version="0.92.5 (2060ec1f9f, 2020-04-08)" xmlns="http://www.w3.org/2000/svg">
  <metadata id="metadata16">
    <RDF>
      <Work rdf:about="">
        <format>image/svg+xml</format>
        <type rdf:resource="http://purl.org/dc/dcmitype/StillImage" />
        <title />
      </Work>
    </RDF>
  </metadata>
  <defs id="defs14" />
  <namedview pagecolor="#ffffff" bordercolor="#666666" borderopacity="1" objecttolerance="10" gridtolerance="10" guidetolerance="10" ns1:pageopacity="0" ns1:pageshadow="2" ns1:window-width="1920" ns1:window-height="1014" id="namedview12" showgrid="true" ns1:zoom="9.2070179" ns1:cx="13.956737" ns1:cy="25.441921" ns1:window-x="1920" ns1:window-y="0" ns1:window-maximized="1" ns1:current-layer="svg10">
    <grid type="xygrid" id="grid823" spacingx="2" spacingy="2" />
  </namedview>
  <path ns0:type="inkscape:offset" ns1:radius="2" ns1:original="M 14 4 L 14 42 L 16 42 L 16 36 L 34 36 L 34 42 L 36 42 L 36 4 L 34 4 L 34 10 L 16 10 L 16 4 L 14 4 z M 16 12 L 34 12 L 34 18 L 16 18 L 16 12 z M 16 20 L 34 20 L 34 26 L 16 26 L 16 20 z M 16 28 L 34 28 L 34 34 L 16 34 L 16 28 z " style="color:#000000;font-style:normal;font-variant:normal;font-weight:normal;font-stretch:normal;font-size:medium;line-height:normal;font-family:sans-serif;font-variant-ligatures:normal;font-variant-position:normal;font-variant-caps:normal;font-variant-numeric:normal;font-variant-alternates:normal;font-feature-settings:normal;text-indent:0;text-align:start;text-decoration:none;text-decoration-line:none;text-decoration-style:solid;text-decoration-color:#000000;letter-spacing:normal;word-spacing:normal;text-transform:none;writing-mode:lr-tb;direction:ltr;text-orientation:mixed;dominant-baseline:auto;baseline-shift:baseline;text-anchor:start;white-space:normal;shape-padding:0;clip-rule:nonzero;display:inline;overflow:visible;visibility:visible;opacity:1;isolation:auto;mix-blend-mode:normal;color-interpolation:sRGB;color-interpolation-filters:linearRGB;solid-color:#000000;solid-opacity:1;vector-effect:none;fill:#ffffff;fill-opacity:1;fill-rule:evenodd;stroke:none;stroke-width:2;stroke-linecap:butt;stroke-linejoin:miter;stroke-miterlimit:4;stroke-dasharray:none;stroke-dashoffset:0;stroke-opacity:1;color-rendering:auto;image-rendering:auto;shape-rendering:auto;text-rendering:auto;enable-background:accumulate" id="path825-62" d="m 14,2 a 2.0002,2.0002 0 0 0 -2,2 v 38 a 2.0002,2.0002 0 0 0 2,2 h 2 a 2.0002,2.0002 0 0 0 2,-2 v -4 h 14 v 4 a 2.0002,2.0002 0 0 0 2,2 h 2 a 2.0002,2.0002 0 0 0 2,-2 V 4 A 2.0002,2.0002 0 0 0 36,2 H 34 A 2.0002,2.0002 0 0 0 32,4 V 8 H 18 V 4 A 2.0002,2.0002 0 0 0 16,2 Z m 4,12 h 14 v 2 H 18 Z m 0,8 h 14 v 2 H 18 Z m 0,8 h 14 v 2 H 18 Z" />
  <path style="fill:none;fill-rule:evenodd;stroke:#000000;stroke-width:2;stroke-linecap:butt;stroke-linejoin:miter;stroke-miterlimit:4;stroke-dasharray:none;stroke-opacity:1" d="M 15,42 V 3.9999999" id="path825" ns1:connector-curvature="0" />
  <path style="fill:none;fill-rule:evenodd;stroke:#000000;stroke-width:2;stroke-linecap:butt;stroke-linejoin:miter;stroke-miterlimit:4;stroke-dasharray:none;stroke-opacity:1" d="M 35,42 V 3.9999999" id="path825-6" ns1:connector-curvature="0" />
  <path style="opacity:1;vector-effect:none;fill:none;fill-opacity:1;fill-rule:evenodd;stroke:#000000;stroke-width:2;stroke-linecap:butt;stroke-linejoin:miter;stroke-miterlimit:4;stroke-dasharray:none;stroke-dashoffset:0;stroke-opacity:1" d="M 16,11 H 34" id="path857" ns1:connector-curvature="0" />
  <path style="opacity:1;vector-effect:none;fill:none;fill-opacity:1;fill-rule:evenodd;stroke:#000000;stroke-width:2;stroke-linecap:butt;stroke-linejoin:miter;stroke-miterlimit:4;stroke-dasharray:none;stroke-dashoffset:0;stroke-opacity:1" d="M 16,19 H 34" id="path857-5" ns1:connector-curvature="0" />
  <path style="opacity:1;vector-effect:none;fill:none;fill-opacity:1;fill-rule:evenodd;stroke:#000000;stroke-width:2;stroke-linecap:butt;stroke-linejoin:miter;stroke-miterlimit:4;stroke-dasharray:none;stroke-dashoffset:0;stroke-opacity:1" d="M 16,27 H 34" id="path857-5-3" ns1:connector-curvature="0" />
  <path style="opacity:1;vector-effect:none;fill:none;fill-opacity:1;fill-rule:evenodd;stroke:#000000;stroke-width:2;stroke-linecap:butt;stroke-linejoin:miter;stroke-miterlimit:4;stroke-dasharray:none;stroke-dashoffset:0;stroke-opacity:1" d="M 16,35 H 34" id="path857-5-3-5" ns1:connector-curvature="0" />
</svg>
